X:0787
M:C
L:1/8
Q:1/4=80 "Slow"
K:D
d2 |(c>B)AB   cd`ef |(g>a)(f>g)       e3A|(d>efg) a>bag |(f>g)(ag   fe)d>e|
    (c>B`AB) (c>def)| g>a (b/a/g/f/)  e3E| F2 A2  f>edB | A4     {d}D2   :|

